package/converter/svg/regular/indian-rupee-sign.svg

<svg xmlns="http://www.w3.org/2000/svg" viewBox="0 0 320 512"><!-- Font Awesome Pro 6.0.0-alpha2 by @fontawesome - https://fontawesome.com License - https://fontawesome.com/license (Commercial License) --><path d="M320 176C320 189.25 309.25 200 296 200H245.574C234.065 267.961 175.188 320 104 320H98.891L261.953 436.469C272.734 444.172 275.234 459.156 267.531 469.953C262.844 476.5 255.469 480 247.984 480C243.156 480 238.281 478.547 234.047 475.531L10.047 315.531C1.563 309.469 -2.031 298.609 1.141 288.672C4.328 278.734 13.563 272 24 272H104C148.602 272 185.859 241.289 196.592 200H24C10.75 200 0 189.25 0 176S10.75 152 24 152H196.592C185.859 110.711 148.602 80 104 80H24C10.75 80 0 69.25 0 56S10.75 32 24 32H296C309.25 32 320 42.75 320 56S309.25 80 296 80H210.547C228.461 99.865 240.918 124.51 245.574 152H296C309.25 152 320 162.75 320 176Z"/></svg>

<svg xmlns="http://www.w3.org/2000/svg" viewBox="0 0 320 512"><!--! Font Awesome Pro 6.6.0 by @fontawesome - https://fontawesome.com License - https://fontawesome.com/license (Commercial License) Copyright 2024 Fonticons, Inc. --><path d="M0 56C0 42.7 10.7 32 24 32l80 0 192 0c13.3 0 24 10.7 24 24s-10.7 24-24 24l-84.7 0c17.7 19.8 30.1 44.6 34.7 72l50 0c13.3 0 24 10.7 24 24s-10.7 24-24 24l-50 0c-11.4 68.1-70.7 120-142 120l-5.1 0L262 436.5c10.8 7.7 13.3 22.7 5.6 33.5s-22.7 13.3-33.5 5.6l-224-160C1.6 309.5-2 298.6 1.1 288.7S13.6 272 24 272l80 0c44.7 0 82.3-30.6 93-72L24 200c-13.3 0-24-10.7-24-24s10.7-24 24-24l173 0c-10.7-41.4-48.2-72-93-72L24 80C10.7 80 0 69.3 0 56z"/></svg>
